src/images/rocket-riot/stars.svg

<svg height="1023" viewBox="0 0 1432 1023" width="1432" xmlns="http://www.w3.org/2000/svg"><path d="m.88611517 145.502833c0-3.383511-1.99375914-8.034706 0-10.150535 1.23104108-1.306412 41.28421533-38.0034917 56.25113063-40.6698108 139.5390852-24.858544 216.3264662-124.4577216 246.7470112 20.2785138 7.485611 35.615378-34.090703 59.069446-47.828365 71.933459-32.319645 30.264274-67.406273 55.009434-100.485555 83.798308-3.767463 3.27882-.540011 5.523033 8.50793 6.879807 14.516346 2.176783 29.150464 2.707198 43.689372 4.601576 1.871982.243914 4.329687-.170422 5.476075 1.804539 3.036926 5.231921 5.793808 11.501728 6.072227 18.09051.363658 8.605987-.534484 18.155905-4.241191 25.240997-11.533557 22.045533-26.622922 40.436163-40.402023 60.091169-33.783775 48.190393-69.542427 93.979554-102.2740086 143.427062-15.9658059 24.119498-30.1237516 50.32348-43.6127237 76.963614-3.120965 6.16377-4.4411425 13.680822-5.9104141 20.842432-10.0578939 49.02478 1.7639437 84.917298 30.3951984 116.674763 76.245923 84.571118 109.225435 99.502893 209.981511 119.776316 127.517841 25.658236-71.713773-32.386244 76.588405 5.19933 1.442424.365566 1.550701 3.826516 1.064556 5.661743-1.293655 4.883621-3.54307 9.338809-6.080743 13.274644-2.799728 4.342272-7.851798 6.135732-9.742815 11.267094-4.056101 11.006417-7.40584 23.144466-7.451891 35.391533-.021744 5.782664 3.998533 10.597971 7.264529 14.436317 4.981866 5.854912 10.687833 11.005238 16.947729 14.019016 105.352016 50.72091 105.291144 55.35999 207.307346 58.0949 69.184794 1.85474 138.447548 3.46945 207.596906 0 28.416969-1.42578 41.14716-21.6839 67.007403-33.169696 10.122046-4.495696 20.871162-6.216032 31.476787-7.838469 12.642116-1.933978 25.39429-2.612441 38.119616-2.808315 48.106158-.74047 96.221627.688824 144.328222 0 26.72962-.382734 53.4302-2.558591 80.1568-3.214336 16.94766-.415816 33.92914-1.29 50.8517 0 11.20937.854485 22.30996 3.59237 33.33337 6.417394 3.38966.868685 12.08676 7.99158 9.75133 4.624132-3.57891-5.16042-9.35417-6.592379-13.77961-10.432494-8.75325-7.595523-17.63268-15.046471-25.71967-23.842479-15.65334-17.025741-31.72714-33.703403-45.39266-53.504599-9.51707-13.790135-18.06545-29.330508-23.62462-46.50073-7.02864-21.708865-16.11139-45.139151-13.6178-68.527391 4.32749-40.58905 42.32097-62.100967 65.94285-71.549995 13.48988-5.396108 27.74941-6.672038 41.74762-8.819687 5.21128-.799531 10.63928-1.633184 15.73839 0 13.47852 4.316998 26.53328 10.831813 39.4056 17.661931 31.07474 16.488407 34.57989 37.600603 74.54446 10.838516 6.74987-4.520019 9.64021-15.518711 13.60928-24.04549 10.5711-22.709949 20.97281-45.633055 29.94383-69.519888 16.45876-43.824202 33.11068-87.700856 46.27837-133.434424 8.48118-29.456529 14.64974-60.24449 18.44663-91.366096 3.35003-27.458934 2.19736-55.5577 2.87004-83.35845.28421-11.746036 3.98449-24.755353 0-35.256193-25.00237-65.891908-52.38169-69.155629-54.74372-127.208763-1.53245-37.663956 12.66212-120.6232632-31.86855-135.12618-24.24357-7.8957415-116.25293 11.8632371-125.37912 13.2069741-3.82422.563076-43.83947 4.7536314-48.80776 2.4022934-20.68469-9.7894326-38.79802-27.4350337-58.96788-38.95549849-5.97903-3.41505593-12.5722-5.02564861-19.06832-5.61662948-24.4657-2.22575288-49.02253-3.54880175-73.53952-2.80831474-6.50912.19659517-13.80364.53241172-19.06832 5.60535111-9.143306 8.8102953-14.996991 22.4299036-22.108699 34.0719632-15.613445 25.5596344-18.477329 52.5310397-20.149913 85.1629899-.455339 8.883623-1.589186 49.437526 4.232674 60.485912 19.51981 37.043561 43.380128 54.871788 67.160698 83.730637 11.91125 14.454864 69.38502 72.237295 56.60882 107.48289-5.32786 14.697929-15.33144 26.145458-25.43011 35.470481-35.00841 32.32648-72.884554 58.836665-109.09568 88.749513-9.548987 7.888111-19.220682 15.609905-28.172406 24.643244-6.208364 6.264966-42.365447 33.475401-30.437781 59.561085 5.634153 12.321834 17.059088 17.916145 26.034778 26.05304 29.338052 26.596354 56.447239 42.442306 80.080149 79.952382 2.16619 3.438178 1.31941 8.797177 1.66071 13.252088 2.20015 28.718428 6.56404 33.638775-12.893904 52.985794-10.024534 9.967388-21.549239 17.058238-32.847935 24.2485-13.610084 8.661183-27.431072 16.943817-41.764655 23.233448-53.560543 23.50257-109.382331 26.000556-164.282257 12.936293-56.924124-13.545952-82.17037-18.124741-135.948039-68.978526-50.119268-47.39429-96.274234-101.743227-144.711463-152.111409-31.318244-32.566748-102.362472-113.053242-151.567203-152.393369-5.642954-4.51165-10.972624-10.423292-17.373551-12.507715-5.768753-1.878559-31.852461.708061-38.647635 2.199283-34.337389 7.535444-77.37005-7.242621-102.802029 24.225944-18.572346 22.980715 50.758042 4.520592 75.949672 9.000141 29.611879 5.265553 59.001449 12.619842 88.324069 20.210843 16.572201 4.29019 32.993113 9.620415 49.30171 15.417535 19.198999 6.824555 37.681527 17.305354 57.179424 22.432683 19.993874 5.257756 40.450492 7.197235 60.807429 8.59412 21.449704 1.471871 43.120375 3.502084 64.435436 0 13.293745-2.184174 27.302655-6.385603 38.119616-16.849888 16.547306-16.007798 30.704519-37.01711 41.449546-60.125004 5.600417-12.044067 4.93592-27.620906 5.901898-41.707421 1.009786-14.72535-1.801442-29.765621 0-44.357839.294515-2.385659 3.708704-.604459 5.476075 0 6.898877 2.359485 13.306332 7.09639 20.311726 8.819687 20.21996 4.974025 40.608354 9.128726 61.114021 11.210702 16.385817 1.663681 33.235362 4.577125 49.30171 0 14.939067-4.255974 28.809649-14.539446 41.475096-25.861308 4.384113-3.919034 6.208402-11.597843 7.869197-18.248406 1.048219-4.197538 1.906183-9.633781 0-13.263366-35.242128-67.104952-37.988741-61.066514-77.337853-108.441551-50.604346-60.92597-93.170066-122.110545-159.070192-154.3332491-23.68534-11.5812478-47.827304-21.4822788-71.49557-33.1245799-7.715379-3.7951558-23.278973-24.0245762-22.60265-13.1618607.968967 15.5630081 15.195996 24.0108771 23.931215 34.5005413 20.519467 24.6407472 40.806295 50.0109674 63.677473 70.7041174 64.218708 58.103145 142.18446 71.947761 217.050161 86.899859 61.106051 12.204036 42.203364 11.808456 69.409041 11.808456" fill="none" stroke="#fff" stroke-dasharray="1 200" stroke-linecap="round" stroke-width="5" transform="translate(0 -1)"/></svg>

<?xml version="1.0" encoding="UTF-8"?>
<svg width="1432px" height="1023px" viewBox="0 0 1432 1023" version="1.1" xmlns="http://www.w3.org/2000/svg" xmlns:xlink="http://www.w3.org/1999/xlink">
    <!-- Generator: Sketch 55.1 (78136) - https://sketchapp.com -->
    <title>Path 3</title>
    <desc>Created with Sketch.</desc>
    <g id="3.0" stroke="none" stroke-width="1" fill="none" fill-rule="evenodd" stroke-dasharray="1,200" stroke-linecap="round">
        <g id="Landing-/-Desktop-Copy-2" transform="translate(0.000000, -1.000000)" fill-rule="nonzero" stroke="#FFFFFF" stroke-width="5">
            <path d="M0.886115173,145.502833 C0.886115173,142.119322 -1.10764397,137.468127 0.886115173,135.352298 C2.11715625,134.045886 42.1703305,97.3488063 57.1372458,94.6824872 C196.676331,69.8239432 273.463712,-29.7752344 303.884257,114.961001 C311.369868,150.576379 269.793554,174.030447 256.055892,186.89446 C223.736247,217.158734 188.649619,241.903894 155.570337,270.692768 C151.802874,273.971588 155.030326,276.215801 164.078267,277.572575 C178.594613,279.749358 193.228731,280.279773 207.767639,282.174151 C209.639621,282.418065 212.097326,282.003729 213.243714,283.97869 C216.28064,289.210611 219.037522,295.480418 219.315941,302.0692 C219.679599,310.675187 218.781457,320.225105 215.07475,327.310197 C203.541193,349.35573 188.451828,367.74636 174.672727,387.401366 C140.888952,435.591759 105.1303,481.38092 72.3987184,530.828428 C56.4329125,554.947926 42.2749668,581.151908 28.7859947,607.792042 C25.6650297,613.955812 24.3448522,621.472864 22.8755806,628.634474 C12.8176867,677.659254 24.6395243,713.551772 53.270779,745.309237 C129.516702,829.880355 162.496214,844.81213 263.25229,865.085553 C390.770131,890.743789 191.538517,832.699309 339.840695,870.284883 C341.283119,870.650449 341.391396,874.111399 340.905251,875.946626 C339.611596,880.830247 337.362181,885.285435 334.824508,889.22127 C332.02478,893.563542 326.97271,895.357002 325.081693,900.488364 C321.025592,911.494781 317.675853,923.63283 317.629802,935.879897 C317.608058,941.662561 321.628335,946.477868 324.894331,950.316214 C329.876197,956.171126 335.582164,961.321452 341.84206,964.33523 C447.194076,1015.05614 447.133204,1019.69522 549.149406,1022.43013 C618.3342,1024.28487 687.596954,1025.89958 756.746312,1022.43013 C785.163281,1021.00435 797.893472,1000.74623 823.753715,989.260434 C833.875761,984.764738 844.624877,983.044402 855.230502,981.421965 C867.872618,979.487987 880.624792,978.809524 893.350118,978.61365 C941.456276,977.87318 989.571745,979.302474 1037.67834,978.61365 C1064.40796,978.230916 1091.10854,976.055059 1117.83514,975.399314 C1134.7828,974.983498 1151.76428,974.109314 1168.68684,975.399314 C1179.89621,976.253799 1190.9968,978.991684 1202.02021,981.816708 C1205.40987,982.685393 1214.10697,989.808288 1211.77154,986.44084 C1208.19263,981.28042 1202.41737,979.848461 1197.99193,976.008346 C1189.23868,968.412823 1180.35925,960.961875 1172.27226,952.165867 C1156.61892,935.140126 1140.54512,918.462464 1126.8796,898.661268 C1117.36253,884.871133 1108.81415,869.33076 1103.25498,852.160538 C1096.22634,830.451673 1087.14359,807.021387 1089.63718,783.633147 C1093.96467,743.044097 1131.95815,721.53218 1155.58003,712.083152 C1169.06991,706.687044 1183.32944,705.411114 1197.32765,703.263465 C1202.53893,702.463934 1207.96693,701.630281 1213.06604,703.263465 C1226.54456,707.580463 1239.59932,714.095278 1252.47164,720.925396 C1283.54638,737.413803 1287.05153,758.525999 1327.0161,731.763912 C1333.76597,727.243893 1336.65631,716.245201 1340.62538,707.718422 C1351.19648,685.008473 1361.59819,662.085367 1370.56921,638.198534 C1387.02797,594.374332 1403.67989,550.497678 1416.84758,504.76411 C1425.32876,475.307581 1431.49732,444.51962 1435.29421,413.398014 C1438.64424,385.93908 1437.49157,357.840314 1438.16425,330.039564 C1438.44846,318.293528 1442.14874,305.284211 1438.16425,294.783371 C1413.16188,228.891463 1385.78256,225.627742 1383.42053,167.574608 C1381.88808,129.910652 1396.08265,46.9513448 1351.55198,32.448428 C1327.30841,24.5526865 1235.29905,44.3116651 1226.17286,45.6554021 C1222.34864,46.2184781 1182.33339,50.4090335 1177.3651,48.0576955 C1156.68041,38.2682629 1138.56708,20.6226618 1118.39722,9.10219701 C1112.41819,5.68714108 1105.82502,4.0765484 1099.3289,3.48556753 C1074.8632,1.25981465 1050.30637,-0.0632342186 1025.78938,0.677252786 C1019.28026,0.873847959 1011.98574,1.20966451 1006.72106,6.2826039 C997.577754,15.0928992 991.724069,28.7125075 984.612361,40.3545671 C968.998916,65.9142015 966.135032,92.8856068 964.462448,125.517557 C964.007109,134.40118 962.873262,174.955083 968.695122,186.003469 C988.214932,223.04703 1012.07525,240.875257 1035.85582,269.734106 C1047.76707,284.18897 1105.24084,341.971401 1092.46464,377.216996 C1087.13678,391.914925 1077.1332,403.362454 1067.03453,412.687477 C1032.02612,445.013957 994.149976,471.524142 957.93885,501.43699 C948.389863,509.325101 938.718168,517.046895 929.766444,526.080234 C923.55808,532.3452 887.400997,559.555635 899.328663,585.641319 C904.962816,597.963153 916.387751,603.557464 925.363441,611.694359 C954.701493,638.290713 981.81068,654.136665 1005.44359,691.646741 C1007.60978,695.084919 1006.763,700.443918 1007.1043,704.898829 C1009.30445,733.617257 1013.66834,738.537604 994.210396,757.884623 C984.185862,767.852011 972.661157,774.942861 961.362461,782.133123 C947.752377,790.794306 933.931389,799.07694 919.597806,805.366571 C866.037263,828.869141 810.215475,831.367127 755.315549,818.302864 C698.391425,804.756912 673.145179,800.178123 619.36751,749.324338 C569.248242,701.930048 523.093276,647.581111 474.656047,597.212929 C443.337803,564.646181 372.293575,484.159687 323.088844,444.81956 C317.44589,440.30791 312.11622,434.396268 305.715293,432.311845 C299.94654,430.433286 273.862832,433.019906 267.067658,434.511128 C232.730269,442.046572 189.697608,427.268507 164.265629,458.737072 C145.693283,481.717787 215.023671,463.257664 240.215301,467.737213 C269.82718,473.002766 299.21675,480.357055 328.53937,487.948056 C345.111571,492.238246 361.532483,497.568471 377.84108,503.365591 C397.040079,510.190146 415.522607,520.670945 435.020504,525.798274 C455.014378,531.05603 475.470996,532.995509 495.827933,534.392394 C517.277637,535.864265 538.948308,537.894478 560.263369,534.392394 C573.557114,532.20822 587.566024,528.006791 598.382985,517.542506 C614.930291,501.534708 629.087504,480.525396 639.832531,457.417502 C645.432948,445.373435 644.768451,429.796596 645.734429,415.710081 C646.744215,400.984731 643.932987,385.94446 645.734429,371.352242 C646.028944,368.966583 649.443133,370.747783 651.210504,371.352242 C658.109381,373.711727 664.516836,378.448632 671.52223,380.171929 C691.74219,385.145954 712.130584,389.300655 732.636251,391.382631 C749.022068,393.046312 765.871613,395.959756 781.937961,391.382631 C796.877028,387.126657 810.74761,376.843185 823.413057,365.521323 C827.79717,361.602289 829.621459,353.92348 831.282254,347.272917 C832.330473,343.075379 833.188437,337.639136 831.282254,334.009551 C796.040126,266.904599 793.293513,272.943037 753.944401,225.568 C703.340055,164.64203 660.774335,103.457455 594.874209,71.2347509 C571.188869,59.6535031 547.046905,49.7524721 523.378639,38.110171 C515.66326,34.3150152 500.099666,14.0855948 500.775989,24.9483103 C501.744956,40.5113184 515.971985,48.9591874 524.707204,59.4488516 C545.226671,84.0895988 565.513499,109.459819 588.384677,130.152969 C652.603385,188.256114 730.569137,202.10073 805.434838,217.052828 C866.540889,229.256864 847.638202,228.861284 874.843879,228.861284" id="Path-3"></path>
        </g>
    </g>
</svg>
